svgs/sharp-regular/address-book.svg

<svg xmlns="http://www.w3.org/2000/svg" viewBox="0 0 512 512"><!--! Font Awesome Pro 6.6.0 by @fontawesome - https://fontawesome.com License - https://fontawesome.com/license (Commercial License) Copyright 2024 Fonticons, Inc. --><path d="M400 48l0 416L80 464 80 48l320 0zM80 0L32 0l0 48 0 416 0 48 48 0 320 0 48 0 0-48 0-416 0-48L400 0 80 0zM240 256a64 64 0 1 0 0-128 64 64 0 1 0 0 128zM128 384l224 0-32-96-160 0-32 96zM512 80l0-16-32 0 0 16 0 64 0 16 32 0 0-16 0-64zm0 112l-32 0 0 16 0 64 0 16 32 0 0-16 0-64 0-16zm0 144l0-16-32 0 0 16 0 64 0 16 32 0 0-16 0-64z"/></svg>

<svg xmlns="http://www.w3.org/2000/svg" viewBox="0 0 512 512"><!--! Font Awesome Pro 6.4.0 by @fontawesome - https://fontawesome.com License - https://fontawesome.com/license (Commercial License) Copyright 2023 Fonticons, Inc. --><path d="M400 48V464H80V48H400zM80 0H32V48 464v48H80 400h48V464 48 0H400 80zM240 256a64 64 0 1 0 0-128 64 64 0 1 0 0 128zM128 384H352l-32-96H160l-32 96zM512 80V64H480V80v64 16h32V144 80zm0 112H480v16 64 16h32V272 208 192zm0 144V320H480v16 64 16h32V400 336z"/></svg>
